src/assets/svg/html.svg

<svg width="73" height="72" viewBox="0 0 73 72" fill="none" xmlns="http://www.w3.org/2000/svg">
<g clip-path="url(#clip0)">
<path d="M13.3694 51.8354L21.5957 7.12866L63.6135 18.3873L48.3843 61.2176L29.4695 61.7787L13.3694 51.8354Z" fill="#E44D26"/>
<path d="M59.1739 20.9506L41.6665 16.2595L30.1733 59.1527L45.352 58.5287L59.1739 20.9506Z" fill="#F16529"/>
<path d="M24.4226 35.0946L27.1284 17.9934L54.2649 25.2646L51.9822 30.2823L30.9733 24.653L30.2068 31.0151L49.4649 36.1753L43.2577 52.3382L31.815 53.0251L22.2488 46.7089L23.719 37.7207L28.9712 39.128L28.6738 43.7394L33.4569 46.8975L39.1782 46.5541L41.93 39.7857L24.4226 35.0946Z" fill="white"/>
</g>
<defs>
<clipPath id="clip0">
<rect width="58" height="58" fill="white" transform="translate(16) rotate(15)"/>
</clipPath>
</defs>
</svg>

<svg width="73" height="72" fill="none" xmlns="http://www.w3.org/2000/svg"><g clip-path="url(#a)"><path d="M13.37 51.835 21.595 7.13l42.017 11.258-15.229 42.83-18.915.562-16.1-9.944z" fill="#E44D26"/><path d="m59.174 20.95-17.508-4.69-11.493 42.893 15.179-.624L59.174 20.95z" fill="#F16529"/><path d="m24.423 35.095 2.705-17.102 27.137 7.272-2.283 5.017-21.009-5.629-.766 6.362 19.258 5.16-6.207 16.163-11.443.687-9.566-6.316 1.47-8.988 5.252 1.407-.297 4.611 4.783 3.159 5.721-.344 2.752-6.768-17.507-4.691z" fill="#fff"/></g><defs><clipPath id="a"><path fill="#fff" transform="rotate(15 8 60.766)" d="M0 0h58v58H0z"/></clipPath></defs></svg>
